build/img/adv-icon-4.svg

<svg width="50" height="45" viewBox="0 0 50 45" fill="none" xmlns="http://www.w3.org/2000/svg">
<path d="M44.791 0H13.1006C10.3503 0 8.1127 2.25358 8.1127 5.01462L7.90848 33.3845H1.72392C1.28563 33.3845 0.950806 33.7785 0.950806 34.2241V38.1285C0.950806 41.7835 3.82781 44.7726 7.30006 44.9365V44.9834H33.9868V44.9306C34.1852 44.9389 34.3053 44.9834 34.4417 44.9834H34.4607C38.1639 44.9613 41.149 41.8926 41.1297 38.1277V13.3135H49.186C49.6243 13.3135 49.9591 12.91 49.9591 12.4648V5.30104C49.9641 2.38951 47.6549 0.0208811 44.791 0V0ZM7.64728 43.3696H7.64186C4.81872 43.3696 2.53812 40.9975 2.53812 38.1277V34.9983H27.7367V38.1143C27.7305 39.9306 28.4362 41.6743 29.6976 42.9603C29.8317 43.0974 29.972 43.1679 30.1154 43.3696H7.64728ZM39.5424 38.1269C39.5424 40.9975 37.2838 43.3696 34.4595 43.3696H34.4433C31.605 43.3488 29.3174 41.0002 29.324 38.1147V34.2241C29.3264 33.7722 28.9749 33.4003 28.5304 33.3845H9.49579L9.70002 5.02013C9.70002 3.14359 11.2253 1.61375 13.1006 1.61375H41.044C40.1395 2.62235 39.5424 3.89846 39.5424 5.32271V38.1269ZM48.3718 5.31522V11.6997H41.1297V5.32113C41.1297 3.30158 42.7821 1.61375 44.7678 1.61375H44.7899C46.7806 1.63385 48.3811 3.28503 48.3718 5.30931V5.31522Z" fill="black"/>
<path d="M19.5874 19.8603L23.6793 22.7044C23.9463 22.8915 24.2994 22.8915 24.5664 22.7044L28.6459 19.861C30.0631 18.8781 31.1098 16.8231 31.1098 15.0805V9.32614C31.1183 9.02199 30.9532 8.7399 30.6866 8.60162L24.4563 5.48606C24.2377 5.37574 23.9812 5.37574 23.7626 5.48606L17.544 8.59295C17.2773 8.73123 17.1126 9.01332 17.1216 9.31747V15.0805C17.1216 16.8231 18.1706 18.8781 19.5874 19.8603ZM18.7089 9.82097L24.1157 7.10884L29.5225 9.82846V15.0805C29.5225 16.296 28.7389 17.8419 27.7503 18.527L24.1064 21.0607L20.4768 18.5274C19.4882 17.8415 18.7089 16.296 18.7089 15.0805V9.82097Z" fill="black"/>
<path d="M22.7732 16.2991C22.9213 16.4528 23.1235 16.5398 23.3351 16.541H23.3371C23.5479 16.5402 23.7498 16.4543 23.8982 16.3023L27.0554 13.0914C27.3658 12.7762 27.3658 12.2648 27.0557 11.9496C26.7461 11.634 26.2431 11.634 25.9331 11.9492L23.3398 14.5853L22.3032 13.5212C21.9943 13.2044 21.4917 13.2021 21.1801 13.5161C20.8685 13.8301 20.8666 14.3411 21.1751 14.6578L22.7732 16.2991Z" fill="black"/>
<path d="M33.9869 25.0137H14.9392C14.5009 25.0137 14.1455 25.3748 14.1455 25.8203C14.1455 26.2658 14.5009 26.627 14.9392 26.627H33.9869C34.4252 26.627 34.7806 26.2658 34.7806 25.8203C34.7806 25.3748 34.4252 25.0137 33.9869 25.0137Z" fill="black"/>
<path d="M33.9869 28.7451H14.9392C14.5009 28.7451 14.1455 29.1065 14.1455 29.5522C14.1455 29.998 14.5009 30.3594 14.9392 30.3594H33.9869C34.4252 30.3594 34.7806 29.998 34.7806 29.5522C34.7806 29.1065 34.4252 28.7451 33.9869 28.7451Z" fill="black"/>
</svg>

<svg width="50" height="45" fill="none" xmlns="http://www.w3.org/2000/svg"><path d="M44.791 0h-31.69c-2.75 0-4.988 2.254-4.988 5.015l-.205 28.37H1.724c-.438 0-.773.394-.773.84v3.904c0 3.654 2.877 6.644 6.35 6.808v.046h26.686v-.052c.198.008.318.052.455.052h.019c3.703-.022 6.688-3.09 6.669-6.855V13.313h8.056c.438 0 .773-.403.773-.848V5.3c.005-2.91-2.304-5.279-5.168-5.3zM7.647 43.37h-.005c-2.823 0-5.104-2.372-5.104-5.242v-3.13h25.199v3.116a6.888 6.888 0 001.96 4.846c.135.137.275.208.418.41H7.647zm31.895-5.243c0 2.87-2.258 5.243-5.083 5.243h-.016c-2.838-.021-5.126-2.37-5.119-5.255v-3.89a.83.83 0 00-.794-.84H9.496L9.7 5.02a3.408 3.408 0 013.4-3.406h27.944c-.904 1.008-1.502 2.284-1.502 3.709v32.804zm8.83-32.812V11.7H41.13V5.32c0-2.02 1.652-3.707 3.638-3.707h.022c1.99.02 3.591 1.671 3.582 3.695v.006z" fill="#000"/><path d="M19.587 19.86l4.092 2.844c.267.188.62.188.887 0l4.08-2.843c1.417-.983 2.464-3.038 2.464-4.78V9.326a.79.79 0 00-.423-.724l-6.23-3.116a.768.768 0 00-.694 0l-6.219 3.107a.79.79 0 00-.422.724v5.764c0 1.742 1.049 3.797 2.465 4.78zM18.71 9.821l5.407-2.712 5.407 2.72v5.252c0 1.215-.784 2.76-1.773 3.446l-3.644 2.534-3.63-2.534c-.988-.686-1.767-2.231-1.767-3.447V9.822z" fill="#000"/><path d="M22.773 16.3c.148.153.35.24.562.241h.002c.21 0 .413-.087.561-.239l3.157-3.21a.817.817 0 000-1.142.784.784 0 00-1.122 0l-2.593 2.635-1.037-1.064a.785.785 0 00-1.123-.005.817.817 0 00-.005 1.142l1.598 1.641zm11.214 8.714H14.939a.8.8 0 00-.793.806.8.8 0 00.793.807h19.048a.8.8 0 00.794-.807.8.8 0 00-.794-.806zm0 3.731H14.939a.8.8 0 00-.793.807.8.8 0 00.793.807h19.048a.8.8 0 00.794-.807.8.8 0 00-.794-.807z" fill="#000"/></svg>
